packages/icons/src/svg/tds-positive.svg

<svg xmlns="http://www.w3.org/2000/svg" viewBox="0 0 16 16">
  <g>
    <polygon points="9.102 8.781 8.527 8.616 8.486 8.634 8.236 9.182 9.084 11.039 9.56 10.134 10.556 10.366 9.544 8.151 9.273 8.275"/>
    <polygon points="6.435 10.134 6.912 11.039 7.759 9.183 7.509 8.634 7.469 8.616 6.893 8.781 6.722 8.276 6.451 8.152 5.439 10.366"/>
    <path d="M7.9971,8.0732 C8.7501,8.0732 9.3601,7.4632 9.3601,6.7102 C9.3601,5.9572 8.7501,5.3462 7.9971,5.3462 C7.2441,5.3462 6.6341,5.9572 6.6341,6.7102 C6.6341,7.4632 7.2441,8.0732 7.9971,8.0732"/>
    <path d="M5.6362,6.9629 L6.0302,6.4369 L5.7732,5.8319 L6.3662,5.5499 L6.4202,4.8959 L7.0762,4.9209 L7.4282,4.3659 L7.9972,4.6939 L8.5662,4.3659 L8.9182,4.9209 L9.5742,4.8959 L9.6282,5.5499 L10.2202,5.8319 L9.9652,6.4369 L10.3582,6.9629 L9.8502,7.3789 L9.9482,7.9899 L11.3182,10.9909 L9.7882,10.6329 L9.0552,12.0249 L7.9972,9.7049 L6.9392,12.0249 L6.2062,10.6329 L4.6762,10.9909 L6.0462,7.9899 L6.1442,7.3789 L5.6362,6.9629 Z M14.4392,8.8299 C14.0572,11.7339 11.7542,14.0319 8.8442,14.4159 C8.7922,14.8359 8.4332,15.1609 7.9992,15.1609 C7.5652,15.1609 7.2082,14.8379 7.1552,14.4199 C4.2262,14.0499 1.9062,11.7419 1.5242,8.8239 C1.1292,8.7519 0.8282,8.4059 0.8282,7.9899 C0.8282,7.5819 1.1172,7.2419 1.5012,7.1599 C1.8142,4.9869 3.1952,3.0569 5.2802,2.0839 C8.4252,0.6169 12.2022,1.8369 13.8982,4.8599 L14.6352,4.5169 L14.1972,6.1579 L12.6582,5.4389 L13.3902,5.0979 C11.8282,2.3579 8.3792,1.2559 5.5162,2.5909 C3.6102,3.4799 2.3462,5.2429 2.0562,7.2289 C2.0582,7.2299 2.0592,7.2299 2.0612,7.2309 C2.3402,7.3699 2.5322,7.6569 2.5322,7.9899 C2.5322,8.3209 2.3422,8.6079 2.0642,8.7479 C2.4142,11.4329 4.5632,13.5609 7.2622,13.8859 C7.4102,13.6329 7.6842,13.4619 7.9992,13.4619 C8.3122,13.4619 8.5842,13.6309 8.7332,13.8819 C11.4232,13.5429 13.5602,11.4139 13.9022,8.7319 C13.6412,8.5859 13.4652,8.3089 13.4652,7.9899 C13.4652,7.6699 13.6432,7.3909 13.9052,7.2459 C14.0702,7.1479 14.1872,7.1249 14.4432,7.1499 C14.8542,7.2119 15.1692,7.5639 15.1692,7.9899 C15.1692,8.4179 14.8522,8.7709 14.4392,8.8299 L14.4392,8.8299 Z M8.0002,-0.0001 C3.5812,-0.0001 0.0002,3.5819 0.0002,7.9999 C0.0002,12.4179 3.5812,15.9999 8.0002,15.9999 C12.4182,15.9999 16.0002,12.4179 16.0002,7.9999 C16.0002,3.5819 12.4182,-0.0001 8.0002,-0.0001 L8.0002,-0.0001 Z"/>
  </g>
</svg>

<svg xmlns="http://www.w3.org/2000/svg" viewBox="0 0 16 16">
	<path d="M9.102 8.781l-.575-.165-.041.018-.25.548.848 1.857.476-.905.996.232-1.012-2.215-.271.124zM6.435 10.134l.477.905.847-1.856-.25-.549-.04-.018-.576.165-.171-.505-.271-.124-1.012 2.214zM7.997 8.073a1.363 1.363 0 1 0 0-2.725 1.363 1.363 0 0 0 0 2.725"/>
	<path d="M5.636 6.963l.394-.526-.257-.605.593-.282.054-.654.656.025.352-.555.57.328.568-.328.352.555.656-.025.054.654.592.282-.255.605.393.526-.508.416.098.61 1.37 3.002-1.53-.358-.733 1.392-1.058-2.32-1.058 2.32-.733-1.392-1.53.358 1.37-3.001.098-.611-.508-.416zM14.44 8.83a6.507 6.507 0 0 1-5.595 5.586.852.852 0 0 1-1.689.004 6.507 6.507 0 0 1-5.63-5.596A.85.85 0 0 1 1.5 7.16a6.644 6.644 0 0 1 3.78-5.076c3.144-1.467 6.921-.247 8.617 2.776l.737-.343-.438 1.64-1.539-.718.732-.341c-1.562-2.74-5.01-3.842-7.874-2.507a6.085 6.085 0 0 0-3.46 4.638.847.847 0 0 1 .008 1.519 5.972 5.972 0 0 0 5.198 5.138.853.853 0 0 1 1.471-.004 5.972 5.972 0 0 0 5.17-5.15.849.849 0 0 1 .002-1.486c.165-.098.282-.121.538-.096a.85.85 0 0 1-.004 1.68zM8 0a8 8 0 0 0-8 8 8 8 0 1 0 16 0 8 8 0 0 0-8-8z"/>
</svg>
